X: 207
T:Judica me Deus
N: Derived from Jos1708-Judica_me_Deus.krn
C: Josquin des Prez
%%abc-version 2.0
%%abcx-abcm2ps-target-version 5.9.1 (29 Sep 2008)
%%abc-creator hum2abc beta
%%abcx-conversion-date 2019/02/12 16:15:48
%%abc-edited-by Jesse Rodin
%%abc-edited-by Joel Chapman 2011/12/26
%%abcx-initial-encoding-date 2012/12/26/
%%humdrum-veritas 239045263
%%humdrum-veritas-data 2181304825
%%linebreak <none>
%%barnumbers 0
L: 1/4
M: 2/1
Q: 1/2=120
%%staves [1 2 3 4]
V: 1 clef=treble
V: 2 clef=treble-8
V: 3 clef=treble-8
V: 4 clef=bass
K: C
[V:1] z8 | 
[V:2] d3dd2d2 | 
[V:3] z8 | 
[V:4] z8 | 
[V:1] z8 | 
[V:2] d4c2c2 | 
[V:3] z8 | 
[V:4] z8 | 
[V:1] A3AA2A2 | 
[V:2] f4f2e2 | 
[V:3] z8 | 
[V:4] z8 | 
[V:1] A4G2G2 | 
[V:2] d2c2B4 | 
[V:3] z8 | 
[V:4] z8 | 
[V:1] c4c2B2 | 
[V:2] A8- | 
[V:3] z8 | 
[V:4] z8 | 
[V:1] A2G2F3E/D/ | 
[V:2] A8 | 
[V:3] z8 | 
[V:4] D,3D,D,2D,2 | 
[V:1] F4E4 | 
[V:2] z8 | 
[V:3] z8 | 
[V:4] D,4C,2C,2 | 
[V:1] A,2A4G2 | 
[V:2] z8 | 
[V:3] A3AA2A2 | 
[V:4] F,4F,2E,2 | 
[V:1] F2E4D2 | 
[V:2] z8 | 
[V:3] A4G2G2 | 
[V:4] D,2C,2B,,4 | 
[V:1] E4z4 | 
[V:2] a6g2 | 
[V:3] c4c2B2 | 
[V:4] A,,8 | 
[V:1] A4A2A2 | 
[V:2] f2e4d2 | 
[V:3] A2G2F4 | 
[V:4] z8 | 
[V:1] G3FG2A2- | 
[V:2] e3de2f2 | 
[V:3] E4z4 | 
[V:4] z8 | 
[V:1] AGFEF4 | 
[V:2] fedcd4 | 
[V:3] A6B2 | 
[V:4] D,4D,2D,2 | 
[V:1] z2E4F2- | 
[V:2] e4z4 | 
[V:3] c6B2- | 
[V:4] C,3B,,C,2D,2 | 
[V:1] FEDCD4 | 
[V:2] z8 | 
[V:3] BAA4^G2 | 
[V:4] D,C,B,,A,,B,,4 | 
[V:1] C2A,3B,CD | 
[V:2] z2a2a2a2 | 
[V:3] A8 | 
[V:4] A,,2F,2F,2F,2 | 
[V:1] EFG2G2D2- | 
[V:2] g3fg2a2- | 
[V:3] z8 | 
[V:4] E,3D,E,2F,2 | 
[V:1] DEFGAGAB | 
[V:2] agfef4 | 
[V:3] z2d2d2d2 | 
[V:4] D,8 | 
[V:1] cAc4B2- | 
[V:2] e2cdefg2 | 
[V:3] c3Bc2d2- | 
[V:4] z2A,4G,2 | 
[V:1] B2A4^G2 | 
[V:2] d4e4 | 
[V:3] dcBAB4 | 
[V:4] F,4E,4 | 
[V:1] A8 | 
[V:2] z2e2e2d2 | 
[V:3] A8 | 
[V:4] A,,3B,,C,2D,2 | 
[V:1] z2A2A2G2 | 
[V:2] e2A2e4 | 
[V:3] z8 | 
[V:4] A,,4z4 | 
[V:1] A2D2A4 | 
[V:2] z2d2d2c2 | 
[V:3] z8 | 
[V:4] z8 | 
[V:1] z2G2G2F2 | 
[V:2] d2G2d3c | 
[V:3] z8 | 
[V:4] z2E,2E,2D,2 | 
[V:1] G2C2G3F | 
[V:2] BAc2B4 | 
[V:3] z2A2A2G2 | 
[V:4] E,2A,,2E,4 | 
[V:1] EDF2E4 | 
[V:2] A8 | 
[V:3] A2D2A4 | 
[V:4] z2D,2D,2C,2 | 
[V:1] D8 | 
[V:2] z2d3cBA | 
[V:3] z2G2G2F2 | 
[V:4] D,2G,,2D,3C, | 
[V:1] z2G3FED | 
[V:2] G4z2G2 | 
[V:3] G2E2G3F | 
[V:4] B,,A,,C,2B,,4 | 
[V:1] C2D4^C2 | 
[V:2] A4z2a2 | 
[V:3] EDF2E4 | 
[V:4] A,,8 | 
[V:1] D8 | 
[V:2] a6g2 | 
[V:3] D8 | 
[V:4] z2F,2F,2E,2 | 
[V:1] z4B4 | 
[V:2] f2e2d4 | 
[V:3] z4G4 | 
[V:4] D,2C,2B,,4 | 
[V:1] c6B2 | 
[V:2] c8 | 
[V:3] A6G2 | 
[V:4] A,,8 | 
[V:1] A2G2F4 | 
[V:2] z4A4 | 
[V:3] F2E2D4 | 
[V:4] z8 | 
[V:1] E8 | 
[V:2] c6c2 | 
[V:3] C8 | 
[V:4] z8 | 
[V:1] z8 | 
[V:2] d4A4- | 
[V:3] z2A4c2- | 
[V:4] D,4F,4- | 
[V:1] z4D4 | 
[V:2] A4z2d2- | 
[V:3] c2c2B4 | 
[V:4] F,2F,2G,4 | 
[V:1] F6F2 | 
[V:2] d2d2dcBA | 
[V:3] A4z2d2- | 
[V:4] D,8 | 
[V:1] G4D2G2- | 
[V:2] G4z4 | 
[V:3] d2d2dcBA | 
[V:4] z2G,4G,2 | 
[V:1] G2G2GFED | 
[V:2] z8 | 
[V:3] G8 | 
[V:4] G,F,E,D,C,4 | 
[V:1] C8 | 
[V:2] z2g4g2 | 
[V:3] z4G4 | 
[V:4] z4C,4 | 
[V:1] z8 | 
[V:2] gfedc4- | 
[V:3] G4A4 | 
[V:4] B,,4A,,4- | 
[V:1] z8 | 
[V:2] c4z2f2- | 
[V:3] c4B2A2- | 
[V:4] A,,4D,3C, | 
[V:1] z4c4 | 
[V:2] f2edc4 | 
[V:3] AGG4^F2 | 
[V:4] B,,2C,2A,,4 | 
[V:1] B4A4 | 
[V:2] z4f4 | 
[V:3] G4z4 | 
[V:4] G,,2G,2F,E,F,G, | 
[V:1] c4B2A2- | 
[V:2] e2c2d3c | 
[V:3] z8 | 
[V:4] A,4G,2F,2 | 
[V:1] AGG4^F2 | 
[V:2] B2c2A4 | 
[V:3] z8 | 
[V:4] G,2C,2D,4 | 
[V:1] G8 | 
[V:2] G4z4 | 
[V:3] z2G2G2G2 | 
[V:4] G,,8 | 
[V:1] z4z2G2 | 
[V:2] z2c2c2c2 | 
[V:3] A4c4 | 
[V:4] z8 | 
[V:1] G2G2A4 | 
[V:2] d4f4 | 
[V:3] B4A4 | 
[V:4] G,4F,3G, | 
[V:1] c4B4 | 
[V:2] e4d4 | 
[V:3] z4z2G2 | 
[V:4] A,2E,2G,4 | 
[V:1] A4z4 | 
[V:2] z4z2c2 | 
[V:3] A3Bd2c2 | 
[V:4] D,4z4 | 
[V:1] z2G2A3B | 
[V:2] d3ef2f2 | 
[V:3] B4A4 | 
[V:4] G,4F,3G, | 
[V:1] c2c2B4 | 
[V:2] e4d4 | 
[V:3] z8 | 
[V:4] A,2E,2G,4 | 
[V:1] A4z4 | 
[V:2] d2f4e2 | 
[V:3] z2A3Bcd | 
[V:4] D,3E,F,G,A,2 | 
[V:1] z2D3EFG | 
[V:2] g6f2- | 
[V:3] e2B4d2 | 
[V:4] E,2G,3F,D,E, | 
[V:1] A2E4A2 | 
[V:2] fe/d/c2e3d/c/ | 
[V:3] A2c3BGA | 
[V:4] F,G,A,3G,E,F, | 
[V:1] D2F3ECD | 
[V:2] B2A2a4- | 
[V:3] Bcd2A3B | 
[V:4] G,2D,E,F,G,A,2- | 
[V:1] EFG2D3E | 
[V:2] a2gabc'b2 | 
[V:3] cde2B4 | 
[V:4] A,G,E,F,G,4 | 
[V:1] FGA2E4 | 
[V:2] a4g2a2 | 
[V:3] d2A2c3B | 
[V:4] D,4z2A,2 | 
[V:1] G2D2F4- | 
[V:2] b4a4- | 
[V:3] GABcd4- | 
[V:4] E,2G,2D,3E, | 
[V:1] F2EDC2E2- | 
[V:2] a8- | 
[V:3] d2cBA3B | 
[V:4] F,G,A,4A,,2- | 
[V:1] E2DCB,2E2- | 
[V:2] a4z4 | 
[V:3] c3B/A/G2A2 | 
[V:4] A,,B,,C,D,E,2A,,2 | 
[V:1] EDD4^C2 | 
[V:2] z4a4 | 
[V:3] F2G2E4 | 
[V:4] _B,,2G,,2A,,4 | 
[V:1] D2A2A2c2- | 
[V:2] a2a2c'3b | 
[V:3] D4z4 | 
[V:4] D,4z4 | 
[V:1] c2B2A2A2 | 
[V:2] a2g2f4 | 
[V:3] A4A2A2 | 
[V:4] z8 | 
[V:1] GFEDC2B,2 | 
[V:2] e8 | 
[V:3] c3BA2G2 | 
[V:4] z4A,,4 | 
[V:1] A,4G,2G2 | 
[V:2] z2c2e3d | 
[V:3] F4E4- | 
[V:4] A,,2A,,2C,3B,, | 
[V:1] A2B2c4- | 
[V:2] c2B2A4 | 
[V:3] E4z4 | 
[V:4] A,,2G,,2F,,4 | 
[V:1] c2BAG2D2 | 
[V:2] G2g4f2 | 
[V:3] z8 | 
[V:4] C,4z2D,2 | 
[V:1] F2D2A3E | 
[V:2] d2f3edc | 
[V:3] z8 | 
[V:4] D,2D,2F,3E, | 
[V:1] F2E2D4 | 
[V:2] BAA4^G2 | 
[V:3] z8 | 
[V:4] D,2C,2B,,4 | 
[V:1] C8- | 
[V:2] A8- | 
[V:3] z2A2A2A2 | 
[V:4] A,,8- | 
[V:1] C8- | 
[V:2] A8- | 
[V:3] c3BA2G2 | 
[V:4] A,,8- | 
[V:1] C8 ||  
[V:2] A8 ||  
[V:3] F4E4 ||  
[V:4] A,,8 ||  
[V:1]  [K:C] [M:2/1]z8 | 
[V:2]  [K:C] [M:2/1]z8 | 
[V:3]  [K:C] [M:2/1]A6A2 | 
[V:4]  [K:C] [M:2/1]A,,6A,,2 | 
[V:1] z8 | 
[V:2] z8 | 
[V:3] A4A4 | 
[V:4] C,4D,4 | 
[V:1] z8 | 
[V:2] z8 | 
[V:3] G8 | 
[V:4] E,4z2C,2 | 
[V:1] z8 | 
[V:2] z8 | 
[V:3] z4G4 | 
[V:4] D,4E,4 | 
[V:1] z8 | 
[V:2] z8 | 
[V:3] A4B4 | 
[V:4] F,4E,4 | 
[V:1] z8 | 
[V:2] z8 | 
[V:3] c4c4 | 
[V:4] A,,8 | 
[V:1] z4G4 | 
[V:2] z4e4 | 
[V:3] B8- | 
[V:4] z4E,4 | 
[V:1] G4G4 | 
[V:2] e4e4 | 
[V:3] B8 | 
[V:4] E,4E,4 | 
[V:1] A4c4 | 
[V:2] c4c4 | 
[V:3] z8 | 
[V:4] F,4A,4 | 
[V:1] B4A4 | 
[V:2] d4d4 | 
[V:3] z2G2A3B | 
[V:4] G,4F,4 | 
[V:1] G6A2 | 
[V:2] e6dc | 
[V:3] c2B3AA2- | 
[V:4] E,6F,2 | 
[V:1] B4c3B | 
[V:2] B4A3G | 
[V:3] A2G2A4 | 
[V:4] D,2E,2A,,2F,2- | 
[V:1] A2G2F4 | 
[V:2] ABc4B2 | 
[V:3] z4F4 | 
[V:4] F,2E,2D,4 | 
[V:1] E8 | 
[V:2] c4z2c2 | 
[V:3] G4A4 | 
[V:4] C,4z4 | 
[V:1] z8 | 
[V:2] d4e4 | 
[V:3] D4z4 | 
[V:4] z4C,4 | 
[V:1] z8 | 
[V:2] A2d4B2 | 
[V:3] F4G4 | 
[V:4] D,4E,4 | 
[V:1] z8 | 
[V:2] c2d2B4 | 
[V:3] A4D4 | 
[V:4] A,,2D,4B,,2 | 
[V:1] z8 | 
[V:2] A4z4 | 
[V:3] z2A2A2G2 | 
[V:4] C,2D,2B,,4 | 
[V:1] z8 | 
[V:2] c4d4 | 
[V:3] A4F4 | 
[V:4] A,,4z2D,2 | 
[V:1] z8 | 
[V:2] e4A4 | 
[V:3] E4z2A2 | 
[V:4] D,2C,2D,4 | 
[V:1] z8 | 
[V:2] z2d2d2c2 | 
[V:3] A2G2A4 | 
[V:4] B,,4A,,4 | 
[V:1] z2A2A2G2 | 
[V:2] d4B4 | 
[V:3] F4E4 | 
[V:4] z2D,2E,4 | 
[V:1] A4F4 | 
[V:2] A4z2d2 | 
[V:3] z2A2B4 | 
[V:4] F,4D,4 | 
[V:1] E4z2A2 | 
[V:2] e4f4 | 
[V:3] c4A4 | 
[V:4] C,4z2F,2 | 
[V:1] B4c4 | 
[V:2] d4c4 | 
[V:3] G4z2c2 | 
[V:4] G,4A,4 | 
[V:1] A4G2E2- | 
[V:2] f4g4 | 
[V:3] d4e3d | 
[V:4] F,4E,4 | 
[V:1] E2A2A2G2 | 
[V:2] a4d2e2 | 
[V:3] c2A2B4 | 
[V:4] z2F,2G,2E,2 | 
[V:1] c3BAGA2 | 
[V:2] c2f3ed2- | 
[V:3] A4z2F2 | 
[V:4] A,3G,F,3E,/D,/ | 
[V:1] G4F2E2- | 
[V:2] d2c2d2c2 | 
[V:3] G2E2A3G | 
[V:4] E,4D,2A,,2 | 
[V:1] EDD4^C2 | 
[V:2] B2G2A4 | 
[V:3] F3E/D/E4 | 
[V:4] B,,2B,,2A,,4 | 
[V:1] D8 | 
[V:2] A8 | 
[V:3] D4z2A2 | 
[V:4] z2D,2D,2D,2 | 
[V:1] z8 | 
[V:2] z8 | 
[V:3] A2A2c4- | 
[V:4] F,6E,D, | 
[V:1] z8 | 
[V:2] z8 | 
[V:3] c2BAG2c2 | 
[V:4] C,2F,2E,2C,2 | 
[V:1] z8 | 
[V:2] z8 | 
[V:3] B2G2A2B2 | 
[V:4] D,2E,2F,2E,2 | 
[V:1] z8 | 
[V:2] z2d2d2d2 | 
[V:3] c2B2A2B2- | 
[V:4] A,,2D,3C,D,2- | 
[V:1] z8 | 
[V:2] f6ed | 
[V:3] BAA4^G2 | 
[V:4] D,C,B,,A,,B,,4 | 
[V:1] z4z2A2 | 
[V:2] c4z2f2 | 
[V:3] A8- | 
[V:4] A,,8 | 
[V:1] A2A2c4- | 
[V:2] e2f4ed | 
[V:3] A8 | 
[V:4] z8 | 
[V:1] c2BAG2c2 | 
[V:2] c2f2e2c2 | 
[V:3] z8 | 
[V:4] z8 | 
[V:1] B2G2A2B2 | 
[V:2] d2e2f2e2 | 
[V:3] z8 | 
[V:4] z8 | 
[V:1] c2B2A2B2- | 
[V:2] A2d3cd2- | 
[V:3] z8 | 
[V:4] z8 | 
[V:1] BAA4^G2 | 
[V:2] dcBAB4 | 
[V:3] z4E4 | 
[V:4] z8 | 
[V:1] A4z4 | 
[V:2] A2d2d2c2 | 
[V:3] F2D2E4 | 
[V:4] z4A,,4 | 
[V:1] z2D2D2C2 | 
[V:2] d4z4 | 
[V:3] z2G2F2E2 | 
[V:4] B,,2G,,2A,,4 | 
[V:1] D2F2E2D2 | 
[V:2] z2A2A2G2 | 
[V:3] D4z2D2 | 
[V:4] z2D,2C,2B,,2 | 
[V:1] C2E3DD2- | 
[V:2] A8 | 
[V:3] E2C2F2D2 | 
[V:4] A,,4z4 | 
[V:1] D2C2D4 | 
[V:2] z2A2GAB2- | 
[V:3] E4D4 | 
[V:4] z2A,,2B,,2G,,2 | 
[V:1] z8 | 
[V:2] BAA4^G2 | 
[V:3] z8 | 
[V:4] C,2A,,2B,,4 | 
[V:1] z2A2GAB2- | 
[V:2] A4z4 | 
[V:3] z2A2B2G2 | 
[V:4] A,,4z4 | 
[V:1] BAA4^G2 | 
[V:2] z4z2e2 | 
[V:3] c2A2B4 | 
[V:4] z4z2E,2 | 
[V:1] A4z4 | 
[V:2] def3ee2- | 
[V:3] A4z4 | 
[V:4] F,2D,2G,2E,2 | 
[V:1] z2A2G2B2- | 
[V:2] e2d2e4 | 
[V:3] z2A2B2G2 | 
[V:4] F,4E,4 | 
[V:1] BAA4^G2 | 
[V:2] z4e3d | 
[V:3] c2A2B4 | 
[V:4] E,8 | 
[V:1] A8 | 
[V:2] cBc4BA | 
[V:3] A8 | 
[V:4] z4A,,4 | 
[V:1] z2D2E2C2 | 
[V:2] G2B3AA2- | 
[V:3] z8 | 
[V:4] B,,2G,,2C,2A,,2 | 
[V:1] D2B,2C2E2- | 
[V:2] A2G2A4- | 
[V:3] D4E2C2 | 
[V:4] B,,4A,,4 | 
[V:1] EDD4^C2 | 
[V:2] A8- | 
[V:3] F2D2E4 | 
[V:4] A,,8 | 
[V:1] D8 |]  
[V:2] A8 |]  
[V:3] D8 |]  
[V:4] D,8 |]  



